build-source/logos/wdr1live.default.svg

<?xml version="1.0" encoding="UTF-8" standalone="no"?>
<!-- Created with Inkscape (http://www.inkscape.org/) -->
<svg xmlns:svg="http://www.w3.org/2000/svg" xmlns="http://www.w3.org/2000/svg" version="1.0" width="602.36218" height="181.77165" id="svg1887">
  <defs id="defs1889"/>
  <g id="layer1">
    <g transform="translate(-470.2475,-12.90492)" id="g1898">
      <polygon points="500000,4630060 4630120,4630060 4630120,499990 500000,499990 500000,4630060 " transform="matrix(3.543307e-5,0,0,3.543307e-5,470.2475,12.90404)" style="fill:#ff008f;fill-rule:evenodd" id="_47951704"/>
      <polygon points="1765580,1099740 1765580,1869540 2241680,1869540 2241680,4074150 3141800,4074150 3141800,1099740 1765580,1099740 " transform="matrix(3.543307e-5,0,0,3.543307e-5,470.2475,12.90404)" style="fill:white;fill-rule:evenodd" id="_47950648"/>
      <path d="M 1054.8931,68.308964 L 1054.8931,30.620224 L 972.71746,30.620224 L 972.71746,176.96128 L 1054.8662,176.96128 L 1054.8662,139.11558 L 1014.9363,139.11558 L 1014.9363,121.98227 L 1054.8931,121.98227 L 1054.8931,87.843924 L 1014.9363,87.843924 L 1014.9363,68.308964 L 1054.8931,68.308964 z M 920.26802,30.620224 L 887.27983,132.07113 L 854.29199,30.620224 L 812.03806,30.620224 L 859.62786,176.96128 L 914.93215,176.96128 L 962.51593,30.620224 L 920.26802,30.620224 L 920.26802,30.620224 z M 759.00397,176.96128 L 801.25578,176.96128 L 801.25578,30.620224 L 759.00397,30.620224 L 759.00397,176.96128 z M 745.09932,139.11558 L 705.19495,139.11558 L 705.19495,30.620224 L 662.94881,30.620224 L 662.94881,176.96128 L 705.19495,176.96128 L 705.19495,176.80821 L 745.09932,176.80821 L 745.09932,139.11558 z " style="fill:black;fill-rule:evenodd" id="_48206424"/>
    </g>
  </g>
</svg>

<svg xmlns="http://www.w3.org/2000/svg" viewBox="0 0 602.36 181.77"><g transform="translate(-470.25-12.905)" fill-rule="evenodd"><g transform="matrix(.00004 0 0 .00004 470.25 12.904)"><path fill="#ff008f" d="m500000 4630060h4130120v-4130070h-4130120v4130070"/><path fill="#fff" d="m1765580 1099740v769800h476100v2204610h900120v-2974410h-1376220"/></g><path d="m1054.89 68.31v-37.689h-82.18v146.34h82.15v-37.846h-39.93v-17.13h39.957v-34.14h-39.957v-19.535h39.957m-134.63-37.689l-32.988 101.45-32.988-101.45h-42.25l47.59 146.34h55.3l47.584-146.34h-42.25m-161.26 146.34h42.25v-146.34h-42.25v146.34m-13.905-37.846h-39.904v-108.5h-42.25v146.34h42.25v-.153h39.904v-37.693"/></g></svg>
